BOEHME
CUT[GOTT SEI DES KAISERS SCHUTZ]
REG[Europa, Mitteleuropa, Russland]
KEY[B0734  08  F 4/4]
MEL[  5__6_6_  5_.31__
    +1__7_6_  5__6__
    4__5_5_  3__3_
    4#_  5__4#__  3__0__
    5__6_6_  5_.31__
    +1__7_6_  5__6__
    4__5_5_  3__3_
    4#_  5__4#__  3__0__
    4__3_2_  3__3__
    +1__6_5#_  6__5__
    +1__7_6_  5__5_
    4_  3__2__  1__0__ //] >>
FCT[National - Hymne]
